brandFactory_export/2.Regular/Subir a la nube_2Regular.svg

<?xml version="1.0" encoding="UTF-8"?>
<svg width="24px" height="24px" viewBox="0 0 24 24" version="1.1" xmlns="http://www.w3.org/2000/svg" xmlns:xlink="http://www.w3.org/1999/xlink">
    <title>2.Regular/Subir a la nube_2Regular</title>
    <g id="Symbols" stroke="none" stroke-width="1" fill="none" fill-rule="evenodd">
        <g id="2.Regular/Subir-a-la-nube_2Regular" fill="#5CB615" fill-rule="nonzero">
            <path d="M17.3008403,17.9697479 L15.0857143,17.9798319 L15.0857143,16.6218487 L16.8168067,16.6218487 C17.2134454,16.6218487 17.5697479,16.3731092 17.7243697,16.0033613 C17.8789916,15.6235294 17.7915966,15.1865546 17.5226891,14.897479 L12.5815126,9.64033613 C12.2151261,9.25378151 11.5361345,9.25378151 11.1697479,9.64033613 L6.10420168,14.9983193 C5.83529412,15.287395 5.74789916,15.7243697 5.90252101,16.1042017 C6.05714286,16.4840336 6.41344538,16.7226891 6.82016807,16.7226891 L8.5512605,16.7226891 L8.5512605,18.010084 L5.21680672,18.0302521 C4.08403361,18.0302521 1.45546218,17.6605042 1.45546218,14.1714286 C1.45546218,12.2151261 2.26890756,10.9915966 3.87226891,10.5210084 C4.19159664,10.4235294 4.40336134,10.1210084 4.40336134,9.78151261 L4.39327731,9.6605042 C4.39327731,3.94621849 9.22689076,3.5092437 10.7092437,3.5092437 C11.5495798,3.5092437 15.794958,3.69747899 16.8,7.55630252 C16.8773109,7.87563025 17.1563025,8.10420168 17.4756303,8.11428571 C18.887395,8.15462185 22.1747899,8.71260504 22.1747899,13.0218487 C22.1714286,17.610084 18.4504202,17.9697479 17.3008403,17.9697479 L17.3008403,17.9697479 Z M13.6235294,21.189916 L9.99663866,21.189916 L9.99663866,16.2554622 C9.99663866,15.697479 9.55294118,15.2369748 9.00168067,15.2369748 L7.9092437,15.2268908 L11.8756303,11.0386555 L15.7142857,15.1260504 L14.6319328,15.1260504 C14.0907563,15.1260504 13.6470588,15.5764706 13.6369748,16.1445378 L13.6235294,21.189916 L13.6235294,21.189916 Z M18.0336134,6.6487395 C16.5445378,2.24201681 11.7008403,2.01344538 10.702521,2.01344538 C9.43529412,2.01344538 3.1697479,2.36302521 2.94789916,9.26386555 C1.6605042,9.79159664 0,11.0689076 0,14.1680672 C0,18.1142857 2.68907563,19.5226891 5.21344538,19.5226891 L8.54789916,19.502521 L8.54789916,21.6672269 C8.54789916,22.2252101 8.98151261,22.6823529 9.53277311,22.6823529 L14.087395,22.6823529 C14.6285714,22.6823529 15.0722689,22.2252101 15.0722689,21.6672269 L15.0722689,19.4722689 L17.297479,19.4621849 C20.2184874,19.4621849 23.6201711,17.7781513 23.6201711,13.0218487 C23.6235294,8.70588235 20.8302521,6.9210084 18.0336134,6.6487395 Z" id="Subir-a-la-nube_2Regular"></path>
        </g>
    </g>
</svg>

<svg width="24" height="24" viewBox="0 0 24 24" xmlns="http://www.w3.org/2000/svg"><path d="M17.3 17.97l-2.214.01v-1.358h1.73a.993.993 0 00.908-.619c.155-.38.068-.816-.201-1.106L12.582 9.64c-.367-.386-1.046-.386-1.412 0l-5.066 5.358c-.269.29-.356.726-.201 1.106a.98.98 0 00.917.619h1.731v1.287l-3.334.02c-1.133 0-3.762-.37-3.762-3.859 0-1.956.814-3.18 2.417-3.65.32-.097.531-.4.531-.74l-.01-.12c0-5.715 4.834-6.152 6.316-6.152.84 0 5.086.188 6.091 4.047.077.32.356.548.676.558 1.411.04 4.699.599 4.699 4.908-.004 4.588-3.725 4.948-4.874 4.948zm-3.676 3.22H9.997v-4.935c0-.558-.444-1.018-.995-1.018l-1.093-.01 3.967-4.188 3.838 4.087h-1.082c-.541 0-.985.45-.995 1.019l-.013 5.045zm4.41-14.541c-1.49-4.407-6.333-4.636-7.331-4.636-1.268 0-7.533.35-7.755 7.25C1.66 9.793 0 11.07 0 14.169c0 3.946 2.69 5.355 5.213 5.355l3.335-.02v2.164c0 .558.434 1.015.985 1.015h4.554c.542 0 .985-.457.985-1.015v-2.195l2.225-.01c2.921 0 6.323-1.684 6.323-6.44.004-4.316-2.79-6.101-5.586-6.373z" fill="#5CB615" fill-rule="nonzero"/></svg>
